src/components/00-materials/images-raw/Mobile.svg

<svg width="96" height="96" viewBox="0 0 96 96" fill="none" xmlns="http://www.w3.org/2000/svg">
<path d="M63 14H33C30.7909 14 29 15.7909 29 18V78C29 80.2091 30.7909 82 33 82H63C65.2091 82 67 80.2091 67 78V18C67 15.7909 65.2091 14 63 14Z" stroke="#00008F" stroke-width="2" stroke-linecap="round" stroke-linejoin="round"/>
<path d="M49 18H47M67 72H29H67ZM67 22H29H67ZM50 77H46H50Z" stroke="#00008F" stroke-width="2" stroke-linecap="round" stroke-linejoin="round"/>
</svg>

<svg width="96" height="96" viewBox="0 0 96 96" fill="none" xmlns="http://www.w3.org/2000/svg"><path d="M63 14H33a4 4 0 00-4 4v60a4 4 0 004 4h30a4 4 0 004-4V18a4 4 0 00-4-4zM49 18h-2m20 54H29h38zm0-50H29h38zM50 77h-4 4z" stroke="#00008F" stroke-width="2" stroke-linecap="round" stroke-linejoin="round"/></svg>
